X: 14133
T: Frieze Breeches, The
R: jig
M: 6/8
K: Dmajor
E|FED EFG|AdB =cAG|FGA BAG|FAF GFE|
FED EFG|AdB =cAG|FAF GEA|DED D2:|
A|d2e fed|efd =cAG|FDA BAG|FAF GFE|
d2e fed|efd =cAG|FAF GEA|DED D2:|
A|DFA ~=c3|AdB cAG|ABc d2e|fed =cAF|
DED ~=c3|AdB =cAG|FAF GEA|DED D2:|
A|d2e fdd|add fdd|c2d eAA|fAA gfe|
d2e fdd|add fdd|faf gec|dec d2:|
e|fed edc|ded =cAG|FGA BAG|FAF GFE|
fed edc|ded =cAG|FAF GEA|DED Dde|
fed edc|ded =cAG|FDA BAG|FAF Gde|
fef gfg|afd =cAG|FAF GEA|DED D2||

